X: 36742
T: Sheffield, The
R: hornpipe
M: 4/4
K: Dmajor
FE|:D2 FA d2 dc|BGBd A2 Ad|c2 ce d2 df|ecdB AFGE|
D2 FA d2 dc|BGBd A2 Ad|BGBd cAce|1 d2 f2 d2 FE:|2 d2 f2 d2 cd||
|:ecAA A2 de|fdAA A2 ef|gefd ecdf|ecdB AFGE|
D2 FA d2 dc|BGBd A2 Ad|BGBd cAce|1 d2 f2 d2 cd:|2 d2 f2 d2||

